X: 4
T: Missa Adieu mes amours / Sanctus
N: Derived from Obr1001d-Missa_Adieu_mes_amours-Sanctus.krn
C: Jacob Obrecht
%%abc-version 2.0
%%abcx-abcm2ps-target-version 5.9.1 (29 Sep 2008)
%%abc-creator hum2abc beta
%%abcx-conversion-date 2019/02/17 07:23:44
%%abc-edited-by Jesse Rodin
%%abc-edited-by Jesse Rodin 2013
%%abcx-initial-encoding-date 2013/05/07/
%%humdrum-veritas 2406511881
%%humdrum-veritas-data 1649805161
%%linebreak <none>
%%barnumbers 0
L: 1/4
M: 3/1
Q: 1/2=120
%%staves [1 2 3 4]
V: 1 clef=treble
V: 2 clef=treble-8
V: 3 clef=treble-8
V: 4 clef=bass
K: F
[V:1] z12 | 
[V:2] G12 | 
[V:3] z12 | 
[V:4] G,,3A,,B,,2C,3D,E,2 | 
[V:1] z12 | 
[V:2] D2E3DG4F2 | 
[V:3] z12 | 
[V:4] F,2G,3A,B,2A,3G,/F,/ | 
[V:1] G12 | 
[V:2] G3AB2c3Bc2- | 
[V:3] z12 | 
[V:4] E,3F,G,2C,2z4 | 
[V:1] D2E3DG4^F2 | 
[V:2] cBc3BAGA4 | 
[V:3] z12 | 
[V:4] z12 | 
[V:1] G3F_EDE3DCB, | 
[V:2] G4B6AG | 
[V:3] z12 | 
[V:4] G,12 | 
[V:1] D2C3B,A,G,A,4 | 
[V:2] A2G3FE2D4 | 
[V:3] z12 | 
[V:4] D,2E,3D,G,4^F,2 | 
[V:1] G,4G3FEDG2- | 
[V:2] z2G3FEDG3F | 
[V:3] z12 | 
[V:4] G,3F,E,D,G,3F,E,D, | 
[V:1] GFEDG3FEDG2- | 
[V:2] EDG3FEDG4 | 
[V:3] z12 | 
[V:4] G,6G,,3A,,B,,2 | 
[V:1] G2F2G4A4 | 
[V:2] A4G2G4^F2 | 
[V:3] z12 | 
[V:4] C,2D,2_E,4D,4 | 
[V:1] G4z2d4c2 | 
[V:2] G3FE2D2E4 | 
[V:3] G12 | 
[V:4] G,,2C,4B,,2C,4 | 
[V:1] d6B2c4 | 
[V:2] D4z2d2e2f2 | 
[V:3] B6AGA4 | 
[V:4] G,,4D,2G,4F,2 | 
[V:1] B6A2G4 | 
[V:2] d8G4 | 
[V:3] G2B3Ad4c2 | 
[V:4] G,4D,2F,2E,4 | 
[V:1] F2G3AF2G4 | 
[V:2] A2B3AA4G2 | 
[V:3] f2e3dd4^c2 | 
[V:4] D,2G,3D,F,2E,4 | 
[V:1] F3GA2B3AA2- | 
[V:2] A4z4A4 | 
[V:3] d8-d4- | 
[V:4] D,8F,4 | 
[V:1] A2G2A8 | 
[V:2] B4A2F3GA2 | 
[V:3] d12 | 
[V:4] G,4D,8 | 
[V:1] z4A8 | 
[V:2] D4E2F4D2 | 
[V:3] z12 | 
[V:4] F,3E,D,C,D,3C,B,,A,, | 
[V:1] B4A2B4AG | 
[V:2] D4z4d2_e2 | 
[V:3] d4c2d4cB | 
[V:4] G,,4A,,2G,,2B,,2C,2 | 
[V:1] F2G2F2G4^F2 | 
[V:2] d2c2d2_e2d4 | 
[V:3] A2G2B2c2A4 | 
[V:4] D,2_E,2D,2C,2D,4 | 
[V:1] G8-G4 | 
[V:2] d4d3c/d/_e2d2- | 
[V:3] G12 | 
[V:4] G,,8z4 | 
[V:1] z12 | 
[V:2] d2cBA2G2c2d2 | 
[V:3] z12 | 
[V:4] G,4F,2G,2E,2F,2 | 
[V:1] z12 | 
[V:2] e2f3ed4^c2 | 
[V:3] z12 | 
[V:4] G,2A,2D,4E,3D,/E,/ | 
[V:1] z12 | 
[V:2] d2e3cc4=B2 | 
[V:3] z12 | 
[V:4] D,2C,2G,3F,/E,/D,4 | 
[V:1] G3F/G/A2G3FED | 
[V:2] c8z4 | 
[V:3] c8B4 | 
[V:4] C,8E,4 | 
[V:1] C2F4EDE4 | 
[V:2] c6BAG2c2 | 
[V:3] A4G8 | 
[V:4] F,4C,8 | 
[V:1] F8F4 | 
[V:2] A2d4cBA4 | 
[V:3] F12 | 
[V:4] D,4B,,2C,2D,4 | 
[V:1] G4B4A4 | 
[V:2] G8z4 | 
[V:3] z12 | 
[V:4] G,,2B,,3A,,G,,4^F,,2 | 
[V:1] G2B3AG4^F2 | 
[V:2] G4B4A4 | 
[V:3] z12 | 
[V:4] G,,8D,4 | 
[V:1] G4d8 | 
[V:2] G2B3GG4^F2 | 
[V:3] G4B4A4 | 
[V:4] z2G,,3A,,B,,C,D,4 | 
[V:1] B2d3cB2A4- | 
[V:2] G3ABcdef2e2- | 
[V:3] G4d4z2c2- | 
[V:4] G,,6G,2A,3G, | 
[V:1] A2B3GG4^F2 | 
[V:2] edd4c2d4- | 
[V:3] c2B2G4A4 | 
[V:4] F,2G,2E,4D,4 | 
[V:1] G12 ||  
[V:2] d12 ||  
[V:3] G12 ||  
[V:4] G,,12 ||  
[V:1]  [K:F] [K:clef=treble][M:2/1]z8 | 
[V:2]  [K:F] [K:clef=treble-8][M:2/1]G4B4 | 
[V:3]  [K:F] [K:clef=treble-8][M:2/1]z8 | 
[V:4]  [K:F] [K:clef=bass][M:2/1]G,6F,E, | 
[V:1] z8 | 
[V:2] A4G2B2- | 
[V:3] z8 | 
[V:4] F,2G,A,B,2G,2- | 
[V:1] z8 | 
[V:2] B2AG^F4 | 
[V:3] z8 | 
[V:4] G,A,B,2A,3G, | 
[V:1] z8 | 
[V:2] G4z4 | 
[V:3] z8 | 
[V:4] E,2C,2G,4 | 
[V:1] z8 | 
[V:2] d4f4 | 
[V:3] z8 | 
[V:4] B,4A,4 | 
[V:1] z8 | 
[V:2] e4d2f2- | 
[V:3] z8 | 
[V:4] G,4B,2A,2- | 
[V:1] z8 | 
[V:2] f2ed^c4 | 
[V:3] z8 | 
[V:4] A,G,F,2E,4 | 
[V:1] D4F4 | 
[V:2] d4d4 | 
[V:3] z8 | 
[V:4] D,2F,4E,D, | 
[V:1] E4D2F2- | 
[V:2] G3AB2A2- | 
[V:3] z8 | 
[V:4] C,4D,4 | 
[V:1] F2ED^C4 | 
[V:2] AGF2E4 | 
[V:3] z8 | 
[V:4] z4G,4 | 
[V:1] D4z4 | 
[V:2] D8 | 
[V:3] z8 | 
[V:4] B,4A,4 | 
[V:1] G4B4 | 
[V:2] z8 | 
[V:3] z8 | 
[V:4] G,2B,4A,G, | 
[V:1] A4G2B2- | 
[V:2] z8 | 
[V:3] z8 | 
[V:4] F,4G,2D,2- | 
[V:1] B2AG^F4 | 
[V:2] z8 | 
[V:3] z8 | 
[V:4] D,2C,B,,A,,4 | 
[V:1] G4B4 | 
[V:2] z2G4FE | 
[V:3] z8 | 
[V:4] G,,8 | 
[V:1] A4G4 | 
[V:2] F4G2B2- | 
[V:3] z8 | 
[V:4] D,4_E,4 | 
[V:1] d8 | 
[V:2] B2AGB4 | 
[V:3] z8 | 
[V:4] D,2B,,3C,D,=E, | 
[V:1] c8 | 
[V:2] A4c3d | 
[V:3] z8 | 
[V:4] F,2C,3D,E,F, | 
[V:1] B4A4 | 
[V:2] _e2d3ef2 | 
[V:3] z8 | 
[V:4] G,4D,4 | 
[V:1] G2c3BAG | 
[V:2] gfedc4 | 
[V:3] z8 | 
[V:4] _E,8 | 
[V:1] F8- | 
[V:2] d6cB | 
[V:3] z8 | 
[V:4] D,8- | 
[V:1] F8 | 
[V:2] A4z2A2 | 
[V:3] z8 | 
[V:4] D,4z2D,2 | 
[V:1] z8 | 
[V:2] B2A2B2c2 | 
[V:3] z8 | 
[V:4] G,2F,2G,2A,2 | 
[V:1] z8 | 
[V:2] B3A/G/A4 | 
[V:3] z8 | 
[V:4] G,2F,E,D,4 | 
[V:1] G4B4 | 
[V:2] z2D4E2 | 
[V:3] z8 | 
[V:4] G,,2B,,4C,2 | 
[V:1] A4G4 | 
[V:2] F4G4- | 
[V:3] z8 | 
[V:4] D,4G,,4 | 
[V:1] d8 | 
[V:2] G2A2B4 | 
[V:3] z8 | 
[V:4] z4G,4 | 
[V:1] c4B2A2- | 
[V:2] c4d3c/d/ | 
[V:3] z8 | 
[V:4] A,4D,4 | 
[V:1] AGFEDCB,A, | 
[V:2] c2A2B4- | 
[V:3] z8 | 
[V:4] F,4G,2D,2 | 
[V:1] G,2G4^F2 | 
[V:2] B2AGA4 | 
[V:3] z8 | 
[V:4] _E,4D,4 | 
[V:1] G8- | 
[V:2] G8 | 
[V:3] z8 | 
[V:4] _E,6C,2- | 
[V:1] G8 | 
[V:2] C4G4- | 
[V:3] z8 | 
[V:4] C,D,_E,4D,C, | 
[V:1] z8 | 
[V:2] G4^F4 | 
[V:3] z8 | 
[V:4] B,,2C,2A,,4 | 
[V:1] G4d4 | 
[V:2] G6B2- | 
[V:3] z8 | 
[V:4] z8 | 
[V:1] d4c4 | 
[V:2] B2AGA4 | 
[V:3] z8 | 
[V:4] z8 | 
[V:1] d8 | 
[V:2] B2d3ef2- | 
[V:3] z8 | 
[V:4] z4D,4 | 
[V:1] c4B2A2- | 
[V:2] fdd4c2 | 
[V:3] z8 | 
[V:4] F,4G,2A,2 | 
[V:1] AGG4^F2 | 
[V:2] d2B2A4 | 
[V:3] z8 | 
[V:4] F,2G,2D,4 | 
[V:1] G8 | 
[V:2] G8 | 
[V:3] z8 | 
[V:4] G,,8- | 
[V:1] D4F4- | 
[V:2] z8 | 
[V:3] z8 | 
[V:4] G,,4D,4- | 
[V:1] F2EDC4 | 
[V:2] D4A4 | 
[V:3] z8 | 
[V:4] D,2C,B,,A,,4 | 
[V:1] D8 | 
[V:2] F4G4 | 
[V:3] z8 | 
[V:4] B,,8 | 
[V:1] C3DE2F2- | 
[V:2] A8 | 
[V:3] z8 | 
[V:4] A,,3B,,C,2D,2- | 
[V:1] F2E2D2E2- | 
[V:2] G4F2G2- | 
[V:3] z8 | 
[V:4] D,2C,2D,2C,2- | 
[V:1] EDD4^C2 | 
[V:2] GFD2E4 | 
[V:3] z8 | 
[V:4] C,D,B,,2A,,4 | 
[V:1] D8 | 
[V:2] D8- | 
[V:3] z8 | 
[V:4] z4D,4 | 
[V:1] z4D4 | 
[V:2] D8 | 
[V:3] z8 | 
[V:4] F,6G,2 | 
[V:1] F6G2 | 
[V:2] z4D4 | 
[V:3] z8 | 
[V:4] A,4A,G,F,E, | 
[V:1] A6c2- | 
[V:2] F6G2 | 
[V:3] z8 | 
[V:4] D,4z4 | 
[V:1] cBAGF2G2- | 
[V:2] A4B4 | 
[V:3] z8 | 
[V:4] F,4D,2E,2- | 
[V:1] G2A4B2- | 
[V:2] c4A2d2- | 
[V:3] z8 | 
[V:4] E,2F,3E,D,C, | 
[V:1] BAGFE4 | 
[V:2] dcBAG4 | 
[V:3] z8 | 
[V:4] B,,4C,4 | 
[V:1] F2D3EFG | 
[V:2] F4B4 | 
[V:3] z8 | 
[V:4] D,6B,,2 | 
[V:1] A6B2 | 
[V:2] c6B2 | 
[V:3] z8 | 
[V:4] F,6G,2 | 
[V:1] A2B4A2 | 
[V:2] c2B2c4 | 
[V:3] z8 | 
[V:4] F,2G,2F,4 | 
[V:1] B4z4 | 
[V:2] B6d2- | 
[V:3] z8 | 
[V:4] B,,8 | 
[V:1] B6d2- | 
[V:2] dcBAB3A | 
[V:3] z8 | 
[V:4] G,,8 | 
[V:1] dcBAB3A | 
[V:2] F6f2- | 
[V:3] z8 | 
[V:4] B,,8 | 
[V:1] F2G2B2A2- | 
[V:2] fed2B2c2- | 
[V:3] z8 | 
[V:4] B,,6F,2- | 
[V:1] AGG4^F2 | 
[V:2] cBG2A4 | 
[V:3] z8 | 
[V:4] F,G,E,2D,4 | 
[V:1] G8- | 
[V:2] G8- | 
[V:3] z8 | 
[V:4] B,,2C,4B,,A,, | 
[V:1] G8 ||  
[V:2] G8 ||  
[V:3] z8 ||  
[V:4] G,,8 ||  
[V:1]  [K:F] [K:clef=treble][M:3/1]G8A4 | 
[V:2]  [K:F] [K:clef=treble-8][M:3/1]d6_e4dc | 
[V:3]  [K:F] [K:clef=treble-8][M:3/1]z12 | 
[V:4]  [K:F] [K:clef=bass][M:3/1]G,,3A,,B,,2C,4B,,A,, | 
[V:1] B6A2G4 | 
[V:2] d6_e3dcB | 
[V:3] G12 | 
[V:4] G,,3A,,B,,2C,3D,E,2 | 
[V:1] F2D2G8 | 
[V:2] A2B3AGFG4 | 
[V:3] d8c4 | 
[V:4] F,2G,3F,E,D,E,4 | 
[V:1] F8z4 | 
[V:2] A6GFG2F2- | 
[V:3] d8c4 | 
[V:4] D,4F,3E,/D,/E,2D,2- | 
[V:1] z4F2G2A4 | 
[V:2] F2E2F2D4C2 | 
[V:3] B2A3GG4^F2 | 
[V:4] D,2C,2D,2B,,2A,,4 | 
[V:1] B2G3FEDC4 | 
[V:2] D4E8 | 
[V:3] G12 | 
[V:4] G,,6C,4B,,A,, | 
[V:1] D2E4DCD4 | 
[V:2] D2G3AB3AG2 | 
[V:3] z4z4G4 | 
[V:4] B,,2C,2G,,2G,4F,E, | 
[V:1] z2G2A2F2G4 | 
[V:2] A2B4A4G2 | 
[V:3] d8c4 | 
[V:4] F,2G,2D,2F,2E,4 | 
[V:1] FEDCB,2B4A2 | 
[V:2] A2B2F4z2f2 | 
[V:3] d8c4 | 
[V:4] D,2B,,3C,D,E,F,3E,/F,/ | 
[V:1] B2A3GG4^F2 | 
[V:2] d2_e3dcBd4- | 
[V:3] B2c3BAGA4 | 
[V:4] G,2C,2_E,4D,4 | 
[V:1] G4z4G4- | 
[V:2] d4B4G2B2- | 
[V:3] G8z4 | 
[V:4] G,,6B,,4G,,2- | 
[V:1] G2B4G4^F2 | 
[V:2] B2G3ABcd4- | 
[V:3] G4B4A4 | 
[V:4] G,,4G,3F,/E,/D,4 | 
[V:1] G2B3cd3cB2 | 
[V:2] d4B3AF2G2 | 
[V:3] G4d6cB | 
[V:4] z2G,,3A,,B,,C,D,2G,2 | 
[V:1] A2G3FF4E2 | 
[V:2] A2d2_e2c4c2 | 
[V:3] c2B3AGFG4 | 
[V:4] F,2G,3E,F,2C,4 | 
[V:1] F4G6B2- | 
[V:2] A4G2B4G2- | 
[V:3] F4z4G4 | 
[V:4] z4G,,4B,,4 | 
[V:1] B2G4^F2G2B2- | 
[V:2] G2d6B3A | 
[V:3] B4A4G4 | 
[V:4] G,,4D,4G,,4- | 
[V:1] Bcd3cB2c2A2- | 
[V:2] G2F2B4A4- | 
[V:3] d8c4- | 
[V:4] G,,2B,,3C,D,B,,F,4- | 
[V:1] AGB3AG4^F2 | 
[V:2] A2d4c2d4- | 
[V:3] c2B2G4A4 | 
[V:4] F,2G,3F,E,2D,4 | 
[V:1] G12 ||  
[V:2] d12 ||  
[V:3] G12 ||  
[V:4] G,,12 ||  
[V:1]  [K:F] [K:clef=treble][M:2/1]G6B2 | 
[V:2]  [K:F] [K:clef=treble-8][M:2/1]z8 | 
[V:3]  [K:F] [K:clef=treble-8][M:2/1]z8 | 
[V:4]  [K:F] [K:clef=bass][M:2/1]G,6F,E, | 
[V:1] A4G4 | 
[V:2] z8 | 
[V:3] z8 | 
[V:4] F,4G,2B,2- | 
[V:1] B4c4 | 
[V:2] z8 | 
[V:3] z8 | 
[V:4] B,2A,G,A,4 | 
[V:1] d6cB | 
[V:2] z8 | 
[V:3] z8 | 
[V:4] D,4G,4 | 
[V:1] A2B4AG | 
[V:2] z4d4 | 
[V:3] z8 | 
[V:4] F,2G,4F,E, | 
[V:1] F3GA2B2- | 
[V:2] d6c2 | 
[V:3] z8 | 
[V:4] D,3E,F,2G,2- | 
[V:1] BAB2G2A2- | 
[V:2] B4c4 | 
[V:3] z8 | 
[V:4] G,F,G,2E,2F,2- | 
[V:1] AG^FEF4 | 
[V:2] A8 | 
[V:3] z8 | 
[V:4] F,E,D,C,D,4 | 
[V:1] G8 | 
[V:2] G4d4- | 
[V:3] z8 | 
[V:4] G,,4z4 | 
[V:1] z8 | 
[V:2] d2e2f4- | 
[V:3] z8 | 
[V:4] D,4D,4 | 
[V:1] z8 | 
[V:2] f2d3cB2- | 
[V:3] z8 | 
[V:4] F,4D,2_E,2- | 
[V:1] z8 | 
[V:2] B2AGA4 | 
[V:3] z8 | 
[V:4] E,D,C,B,,C,4 | 
[V:1] z4D4 | 
[V:2] B6AG | 
[V:3] z8 | 
[V:4] B,,8 | 
[V:1] D4E4 | 
[V:2] F2G4FE | 
[V:3] z8 | 
[V:4] z8 | 
[V:1] F8 | 
[V:2] D6A2- | 
[V:3] z8 | 
[V:4] z4D,4 | 
[V:1] E4D2E2- | 
[V:2] A2GAB2A2- | 
[V:3] z8 | 
[V:4] C,4B,,2C,2- | 
[V:1] EDD4^C2 | 
[V:2] A2GFE4 | 
[V:3] z8 | 
[V:4] C,2D,2A,,4 | 
[V:1] D6F2- | 
[V:2] D8 | 
[V:3] z8 | 
[V:4] z8 | 
[V:1] FGABc2A2- | 
[V:2] z4A4 | 
[V:3] z8 | 
[V:4] z8 | 
[V:1] A2GFG4 | 
[V:2] B4B4 | 
[V:3] z8 | 
[V:4] z8 | 
[V:1] A8 | 
[V:2] A2c4BA | 
[V:3] z8 | 
[V:4] z4C,4 | 
[V:1] z8 | 
[V:2] G2A4G2 | 
[V:3] z8 | 
[V:4] B,,4B,,4 | 
[V:1] z4c4 | 
[V:2] A8 | 
[V:3] z8 | 
[V:4] A,,B,,C,D,E,2F,2 | 
[V:1] B4B4 | 
[V:2] z8 | 
[V:3] z8 | 
[V:4] G,2A,4G,2 | 
[V:1] A4d4 | 
[V:2] z8 | 
[V:3] z8 | 
[V:4] A,4B,2B,2- | 
[V:1] d6c2 | 
[V:2] z4d4 | 
[V:3] z8 | 
[V:4] B,2A,G,F,4 | 
[V:1] B2A3GFE | 
[V:2] d6c2 | 
[V:3] z8 | 
[V:4] G,2D,3E,F,2 | 
[V:1] D2G4FE | 
[V:2] B4c4 | 
[V:3] z8 | 
[V:4] G,4C,4 | 
[V:1] F2G4^F2 | 
[V:2] A8 | 
[V:3] z8 | 
[V:4] D,8 | 
[V:1] G8 ||  
[V:2] G8 ||  
[V:3] z8 ||  
[V:4] G,,8 ||  



